X:63
T:Day Room, the
R:jig 32
M:6/8
L:1/8
Q:1/4=180
C:Paul Burgess (c)
R:jig 32
Z:Neil Gledhill (Old Swan Band)
K:G
|:E2E EFG|AGF E2E|FED d2D|FED d2D|
E2E EFG|AGF E2E|FED d2F|1E3- E2D:|2E3 F3||!
:G2G GAB|G2G GAB|DcB AGE|DcB AGF|
G2G GAB|G2G GAB|DcB AGF|1G3- G2D:|2G3 F3|]

